X:832
T:Scolding Wives of Abertarff, The
R:Reel
B:The Athole Collection
M:C|
L:1/8
K:G Minor
f|dGBG B/c/d f2|cFAF A/B/c =e2|dGBG B/c/d g2|dg ^f/g/a ~g2g:|
a|bgdg dgbg|fdcf AFcA|bgdg dgbg|dg ^f/g/a g2 ga|bgdb caBg|
Afcf AFcA|dGBG B/c/d g2|dg ^f/g/a ~g2g||

